res/skins/LateNight/knob_pitch_sampler.svg

<?xml version="1.0" encoding="UTF-8"?>
<!-- Created with Inkscape (http://www.inkscape.org/) -->
<svg id="svg3014" width="27" height="12" version="1.1" xmlns="http://www.w3.org/2000/svg" xmlns:cc="http://creativecommons.org/ns#" xmlns:dc="http://purl.org/dc/elements/1.1/" xmlns:rdf="http://www.w3.org/1999/02/22-rdf-syntax-ns#">
 <metadata id="metadata3019">
  <rdf:RDF>
   <cc:Work rdf:about="">
    <dc:format>image/svg+xml</dc:format>
    <dc:type rdf:resource="http://purl.org/dc/dcmitype/StillImage"/>
    <dc:title/>
   </cc:Work>
  </rdf:RDF>
 </metadata>
 <g id="layer1" transform="translate(0 -1040.4)">
  <g id="layer11" transform="translate(0 1040.4)">
   <path id="rect25892-3-2" d="m4.4375 10.562c0.4548 0.2773 0.9887 0.4375 1.5625 0.4375h17c1.662 0 3-1.338 3-3v-3c0-0.5738-0.1602-1.1077-0.4375-1.5625 0.8626 0.5258 1.4375 1.4743 1.4375 2.5625v3c0 1.662-1.338 3-3 3h-17c-1.0882 0-2.0367-0.5749-2.5625-1.4375z" color="#000000" opacity=".15"/>
   <path id="rect25892-3-2-1" d="m3.4375 9.5625c0.4548 0.2773 0.9887 0.4375 1.5625 0.4375h17c1.662 0 3-1.338 3-3v-3c0-0.5738-0.1602-1.1077-0.4375-1.5625 0.8626 0.5258 1.4375 1.4743 1.4375 2.5625v3c0 1.662-1.338 3-3 3h-17c-1.0882 0-2.0367-0.5749-2.5625-1.4375z" color="#000000" opacity=".5"/>
   <path id="rect25892-3" d="m2 4v3c0 1.662 1.338 3 3 3h17c1.662 0 3-1.338 3-3v-3c0-1.662-1.338-3-3-3h-17c-1.662 0-3 1.338-3 3z" color="#000000" opacity=".8"/>
   <path id="rect25892" d="m1 3c0-1.662 1.338-3 3-3h17c0.831 0 1.5828 0.3328 2.125 0.875l-1.125 1.125-19 5-1.125 1.125c-0.5422-0.5422-0.875-1.294-0.875-2.125z" color="#000000" fill="#787878"/>
   <path id="rect25892-8" d="m1.875 8.125 1.125-1.125 19-5 1.125-1.125c0.5423 0.5423 0.875 1.294 0.875 2.125v3c0 1.662-1.338 3-3 3h-17c-0.831 0-1.5827-0.3327-2.125-0.875z" color="#000000" fill="#4d4d4d"/>
   <path id="rect25892-1" d="m2 3v3c0 1.108 0.892 2 2 2h17c1.108 0 2-0.892 2-2v-3c0-1.108-0.892-2-2-2h-17c-1.108 0-2 0.892-2 2z" color="#000000" fill="#232323"/>
   <path id="rect26439" d="m2 3v1h21v-1z" color="#000000" fill="#080808"/>
   <path id="rect26439-0" d="m2 4v1h21v-1z" color="#000000" fill="#ea0000"/>
   <path id="rect26439-0-5" d="m2 5v1h21v-1z" color="#000000" fill="#515151"/>
  </g>
 </g>
</svg>

<?xml version="1.0" encoding="UTF-8" standalone="no"?>
<!-- Created with Inkscape (http://www.inkscape.org/) -->

<svg
   xmlns:dc="http://purl.org/dc/elements/1.1/"
   xmlns:cc="http://creativecommons.org/ns#"
   xmlns:rdf="http://www.w3.org/1999/02/22-rdf-syntax-ns#"
   xmlns:svg="http://www.w3.org/2000/svg"
   xmlns="http://www.w3.org/2000/svg"
   version="1.1"
   width="27"
   height="12"
   id="svg3014">
  <defs
     id="defs3016" />
  <metadata
     id="metadata3019">
    <rdf:RDF>
      <cc:Work
         rdf:about="">
        <dc:format>image/svg+xml</dc:format>
        <dc:type
           rdf:resource="http://purl.org/dc/dcmitype/StillImage" />
        <dc:title></dc:title>
      </cc:Work>
    </rdf:RDF>
  </metadata>
  <g
     transform="translate(0,-1040.3622)"
     id="layer1">
    <g
       transform="translate(0,1040.3622)"
       id="layer11"
       style="display:inline">
      <path
         d="m 4.4375006,10.5625 c 0.4548,0.2773 0.9887,0.4375 1.5625,0.4375 L 23,11 c 1.662,0 3,-1.338 3,-3 L 26,5 C 26,4.4262 25.8398,3.8923 25.5625,3.4375 26.4251,3.9633 27,4.9118 27,6 l 0,3 c 0,1.662 -1.338,3 -3,3 L 7.0000006,12 c -1.0882,0 -2.0367,-0.5749 -2.5625,-1.4375 z"
         id="rect25892-3-2"
         style="opacity:0.15;color:#000000;fill:#000000;fill-opacity:1;fill-rule:nonzero;stroke:none;stroke-width:0.36000001;marker:none;visibility:visible;display:inline;overflow:visible;enable-background:accumulate" />
      <path
         d="m 3.4375006,9.5625 c 0.4548,0.2773 0.9887,0.4375 1.5625,0.4375 L 22,10 c 1.662,0 3,-1.338 3,-3 L 25,4 C 25,3.4262 24.8398,2.8923 24.5625,2.4375 25.4251,2.9633 26,3.9118 26,5 l 0,3 c 0,1.662 -1.338,3 -3,3 L 6.0000006,11 c -1.0882,0 -2.0367,-0.5749 -2.5625,-1.4375 z"
         id="rect25892-3-2-1"
         style="opacity:0.5;color:#000000;fill:#000000;fill-opacity:1;fill-rule:nonzero;stroke:none;stroke-width:0.36000001;marker:none;visibility:visible;display:inline;overflow:visible;enable-background:accumulate" />
      <path
         d="m 1.9999826,4 0,3 c 0,1.662 1.338,3 3,3 l 17.0000004,0 c 1.662,0 3,-1.338 3,-3 l 0,-3 c 0,-1.662 -1.338,-3 -3,-3 L 4.9999826,1 c -1.662,0 -3,1.338 -3,3 z"
         id="rect25892-3"
         style="opacity:0.8;color:#000000;fill:#000000;fill-opacity:1;fill-rule:nonzero;stroke:none;stroke-width:0.36000001;marker:none;visibility:visible;display:inline;overflow:visible;enable-background:accumulate" />
      <path
         d="M 1,3 C 1,1.338 2.338,0 4.0000006,0 L 21,0 c 0.831,0 1.5828,0.3328 2.125,0.875 L 22,2 3.0000006,7 1.875,8.125 C 1.3328,7.5828 1,6.831 1,6 z"
         id="rect25892"
         style="color:#000000;fill:#787878;fill-opacity:1;fill-rule:nonzero;stroke:none;stroke-width:0.36000001;marker:none;visibility:visible;display:inline;overflow:visible;enable-background:accumulate" />
      <path
         d="M 1.875,8.125 3.0000006,7 22,2 23.125,0.875 C 23.6673,1.4173 24,2.169 24,3 l 0,3 c 0,1.662 -1.338,3 -3,3 L 4.0000006,9 C 3.1690006,9 2.4173003,8.6673 1.875,8.125 z"
         id="rect25892-8"
         style="color:#000000;fill:#4d4d4d;fill-opacity:1;fill-rule:nonzero;stroke:none;stroke-width:0.36000001;marker:none;visibility:visible;display:inline;overflow:visible;enable-background:accumulate" />
      <path
         d="m 1.9999826,3 0,3 c 0,1.108 0.8919997,2 2,2 L 20.999983,8 c 1.108,0 2,-0.892 2,-2 l 0,-3 c 0,-1.108 -0.892,-2 -2,-2 L 3.9999826,1 c -1.1080003,0 -2,0.892 -2,2 z"
         id="rect25892-1"
         style="color:#000000;fill:#232323;fill-opacity:1;fill-rule:nonzero;stroke:none;stroke-width:0.36000001;marker:none;visibility:visible;display:inline;overflow:visible;enable-background:accumulate" />
      <path
         d="m 2.0000006,3 0,1 21.0000004,0 0,-1 z"
         id="rect26439"
         style="color:#000000;fill:#080808;fill-opacity:1;fill-rule:nonzero;stroke:none;stroke-width:0.36000001;marker:none;visibility:visible;display:inline;overflow:visible;enable-background:accumulate" />
      <path
         d="m 2.0000006,4 0,1 21.0000004,0 0,-1 z"
         id="rect26439-0"
         style="color:#000000;fill:#ea0000;fill-opacity:1;fill-rule:nonzero;stroke:none;stroke-width:0.36000001;marker:none;visibility:visible;display:inline;overflow:visible;enable-background:accumulate" />
      <path
         d="m 2.0000006,5 0,1 21.0000004,0 0,-1 z"
         id="rect26439-0-5"
         style="color:#000000;fill:#515151;fill-opacity:1;fill-rule:nonzero;stroke:none;stroke-width:0.36000001;marker:none;visibility:visible;display:inline;overflow:visible;enable-background:accumulate" />
    </g>
  </g>
</svg>
